icons/xcart.svg

<?xml version="1.0" encoding="UTF-8"?>
<svg width="512px" height="156px" viewBox="0 0 512 156" version="1.1" xmlns="http://www.w3.org/2000/svg" xmlns:xlink="http://www.w3.org/1999/xlink" preserveAspectRatio="xMidYMid">
		<g>
				<path d="M296.357647,126.996078 C301.578039,125.791373 305.192157,122.578824 307.601569,117.358431 C308.806275,114.547451 309.609412,110.933333 310.412549,106.11451 C311.215686,101.295686 311.215686,97.28 311.215686,93.6658824 L311.215686,89.2486275 L287.121569,89.2486275 C287.121569,91.2564706 287.121569,92.8627451 287.121569,94.8705882 C287.121569,96.4768627 287.121569,98.4847059 287.121569,100.09098 C287.121569,102.500392 286.72,104.909804 286.318431,107.319216 C285.916863,109.728627 283.90902,110.933333 280.696471,110.933333 C277.483922,110.933333 275.476078,109.728627 275.07451,107.319216 C274.672941,104.909804 274.271373,102.500392 274.271373,100.09098 C274.271373,92.4611765 274.271373,84.4298039 273.869804,76.3984314 C273.869804,68.3670588 273.869804,60.7372549 274.271373,52.7058824 C274.271373,46.6823529 276.279216,43.8713725 280.294902,43.8713725 C284.310588,43.8713725 286.318431,46.6823529 286.318431,52.7058824 C286.318431,54.3121569 286.318431,56.32 286.318431,57.9262745 C286.318431,59.532549 286.318431,61.5403922 286.318431,63.1466667 L310.01098,63.1466667 C309.609412,59.532549 309.207843,55.9184314 308.806275,51.5011765 C308.404706,47.0839216 307.601569,43.8713725 306.798431,41.4619608 C304.790588,35.4384314 301.176471,31.4227451 295.956078,29.414902 C290.735686,27.8086275 285.515294,26.6039216 279.893333,26.6039216 C274.271373,26.6039216 268.649412,27.4070588 263.830588,29.414902 C258.610196,31.0211765 254.996078,35.0368627 252.988235,41.4619608 C251.783529,44.2729412 250.980392,48.2886275 250.177255,53.107451 C249.374118,57.9262745 248.972549,62.3435294 248.972549,67.5639216 L248.972549,90.4533333 C248.972549,95.6737255 249.374118,100.492549 250.177255,105.712941 C250.980392,110.933333 252.185098,114.547451 253.389804,117.358431 C255.799216,122.578824 259.413333,125.791373 264.633725,126.59451 C269.854118,127.799216 274.672941,128.200784 279.893333,128.200784 C286.318431,128.602353 291.137255,128.200784 296.357647,126.996078 Z" fill="#000000"></path>
				<path d="M342.939608,88.8470588 L348.561569,43.8713725 L348.963137,43.8713725 L354.585098,88.8470588 L342.939608,88.8470588 Z M356.99451,106.917647 L359.80549,127.799216 L383.899608,127.799216 L366.632157,28.2101961 L331.294118,28.2101961 L314.026667,127.397647 L338.120784,127.397647 L340.931765,106.516078 L356.99451,106.516078 L356.99451,106.917647 Z" fill="#000000" fill-rule="nonzero"></path>
				<path d="M389.12,127.397647 L412.812549,127.397647 L412.812549,90.4533333 L416.828235,90.4533333 C420.843922,90.4533333 423.253333,91.2564706 424.458039,92.8627451 C425.662745,94.4690196 426.064314,96.8784314 426.064314,99.6894118 L426.064314,127.397647 L450.158431,127.397647 L450.158431,104.508235 C450.158431,98.4847059 448.953725,93.2643137 446.142745,89.2486275 C443.331765,85.2329412 439.316078,82.8235294 434.095686,81.6188235 L434.095686,81.2172549 C439.316078,80.4141176 442.930196,78.4062745 445.339608,75.1937255 C447.347451,72.7843137 448.552157,69.5717647 448.953725,66.3592157 C449.355294,62.745098 449.355294,59.532549 449.355294,56.32 C449.355294,51.9027451 448.953725,47.8870588 448.552157,43.8713725 C448.150588,39.8556863 446.142745,36.2415686 442.528627,33.8321569 C439.316078,31.4227451 435.300392,29.8164706 430.481569,29.414902 C426.064314,29.0133333 421.647059,28.6117647 417.631373,28.6117647 L387.915294,28.6117647 L387.915294,127.397647 L389.12,127.397647 Z M412.812549,45.8792157 L418.43451,45.8792157 C421.647059,45.8792157 423.654902,46.6823529 424.859608,47.8870588 C426.064314,49.0917647 426.465882,51.5011765 426.465882,54.3121569 C426.465882,55.9184314 426.465882,57.1231373 426.465882,58.3278431 C426.465882,59.532549 426.465882,60.7372549 426.465882,61.9419608 C426.465882,64.3513725 426.064314,66.3592157 425.662745,67.9654902 C425.261176,69.5717647 424.056471,70.7764706 422.851765,71.5796078 C421.647059,72.3827451 420.040784,72.7843137 417.229804,72.7843137 L412.812549,72.7843137 L412.812549,45.8792157 Z" fill="#000000" fill-rule="nonzero"></path>
				<polygon fill="#000000" points="455.378824 47.4854902 471.441569 47.4854902 471.441569 127.397647 495.134118 127.397647 495.134118 47.4854902 511.196863 47.4854902 511.196863 28.2101961 454.977255 28.2101961 454.977255 47.4854902"></polygon>
				<polygon fill="#F29221" points="213.63451 64.3513725 213.63451 64.3513725 205.603137 28.2101961 181.107451 28.2101961 195.96549 75.5952941 179.902745 127.799216 204.8 127.799216 212.831373 88.8470588 213.232941 88.8470588 221.665882 127.799216 246.563137 127.799216 230.500392 75.9968627 245.358431 28.6117647 220.862745 28.6117647"></polygon>
				<path d="M20.8546594,0 L134.753184,0 C145.982616,0 155.607843,9.22417627 155.607843,20.8546594 L155.607843,134.753184 C155.607843,145.982616 146.383667,155.607843 134.753184,155.607843 L20.8546594,155.607843 C9.62522741,155.607843 0,146.383667 0,134.753184 L0,20.8546594 C0.401051142,9.22417627 9.62522741,0 20.8546594,0 Z" fill="#F29221"></path>
				<path d="M122.076863,77.5027451 C119.667451,79.9121569 115.250196,84.3294118 111.23451,88.345098 C114.848627,91.9592157 119.667451,96.7780392 121.675294,98.7858824 C122.478431,99.5890196 123.281569,101.195294 123.281569,102.4 C123.281569,108.021961 123.281569,115.651765 123.281569,121.273725 C123.281569,123.281569 122.88,123.683137 120.872157,123.683137 C113.643922,123.683137 113.643922,123.683137 112.037647,123.683137 C112.037647,120.06902 112.037647,114.848627 112.037647,109.226667 C112.037647,107.218824 111.636078,106.415686 110.431373,105.21098 C108.423529,103.203137 102.801569,97.5811765 100.793725,95.5733333 C99.5890196,94.3686275 97.9827451,93.9670588 96.7780392,93.9670588 C89.5498039,93.9670588 70.2745098,93.9670588 65.0541176,93.9670588 C63.4478431,93.9670588 61.8415686,94.3686275 61.0384314,95.5733333 C59.0305882,97.5811765 53.4086275,103.203137 51.4007843,105.21098 C50.1960784,106.415686 49.7945098,107.218824 49.7945098,109.226667 C49.7945098,113.643922 49.7945098,116.856471 49.7945098,120.872157 C49.7945098,122.88 49.3929412,123.683137 46.9835294,123.683137 C45.7788235,123.683137 45.3772549,123.683137 38.1490196,123.683137 C38.1490196,119.265882 38.1490196,109.226667 38.1490196,102.4 C38.1490196,101.195294 38.9521569,99.5890196 39.7552941,98.7858824 C42.1647059,96.3764706 46.5819608,91.9592157 50.5976471,87.9435294 C46.9835294,84.3294118 42.1647059,79.5105882 40.1568627,77.5027451 C39.3537255,76.6996078 38.5505882,75.0933333 38.5505882,73.8886275 C38.5505882,67.0619608 38.5505882,40.1568627 38.5505882,35.7396078 C48.9913725,35.7396078 48.1882353,35.7396078 50.1960784,35.7396078 C50.1960784,39.3537255 50.1960784,61.44 50.1960784,67.0619608 C50.1960784,69.0698039 50.5976471,69.8729412 51.8023529,71.0776471 C53.8101961,73.0854902 59.4321569,78.707451 61.44,80.7152941 C62.6447059,81.92 64.2509804,82.3215686 65.4556863,82.3215686 C72.2823529,82.3215686 91.9592157,82.3215686 97.1796078,82.3215686 C98.7858824,82.3215686 100.392157,81.92 101.195294,80.7152941 C103.203137,78.707451 108.825098,73.0854902 110.832941,71.0776471 C112.037647,69.8729412 112.439216,69.0698039 112.439216,67.0619608 C112.439216,61.8415686 112.439216,39.3537255 112.439216,35.7396078 C114.04549,35.7396078 113.643922,35.7396078 124.084706,35.7396078 C124.084706,40.1568627 124.084706,67.0619608 124.084706,73.8886275 C123.683137,75.494902 122.88,76.6996078 122.076863,77.5027451 Z" fill="#FFFFFF"></path>
				<polygon fill="#FFFFFF" points="61.8415686 57.8258824 70.2745098 57.8258824 70.2745098 66.2588235 61.8415686 66.2588235"></polygon>
				<polygon fill="#FFFFFF" points="93.1639216 57.8258824 101.596863 57.8258824 101.596863 66.2588235 93.1639216 66.2588235"></polygon>
				<polygon fill="#FFFFFF" points="61.8415686 42.1647059 70.2745098 42.1647059 70.2745098 50.5976471 61.8415686 50.5976471"></polygon>
				<polygon fill="#FFFFFF" points="93.1639216 42.1647059 101.596863 42.1647059 101.596863 50.5976471 93.1639216 50.5976471"></polygon>
				<polygon fill="#FFFFFF" points="77.5027451 57.8258824 85.9356863 57.8258824 85.9356863 66.2588235 77.5027451 66.2588235"></polygon>
				<polygon fill="#FFFFFF" points="77.5027451 42.1647059 85.9356863 42.1647059 85.9356863 50.5976471 77.5027451 50.5976471"></polygon>
				<path d="M50.1960784,132.116078 C46.5819608,132.116078 43.3694118,129.305098 42.5662745,126.092549 L48.9913725,126.092549 C50.5976471,126.092549 52.2039216,124.486275 52.2039216,122.88 L52.2039216,116.454902 C55.8180392,117.258039 58.227451,120.470588 58.227451,124.084706 C58.227451,128.501961 54.6133333,132.116078 50.1960784,132.116078 Z" fill="#B14C26"></path>
				<path d="M124.084706,132.116078 C120.470588,132.116078 117.258039,129.706667 116.454902,126.092549 L122.88,126.092549 C124.486275,126.092549 126.092549,124.486275 126.092549,122.88 L126.092549,116.454902 C129.706667,117.258039 132.116078,120.470588 132.116078,124.084706 C132.116078,128.501961 128.501961,132.116078 124.084706,132.116078 Z" fill="#B14C26"></path>
		</g>
</svg>

<svg xmlns="http://www.w3.org/2000/svg" viewBox="0 0 511.197 155.608">
  <path d="M296.358 126.996c5.22-1.205 8.834-4.417 11.244-9.638 1.204-2.81 2.007-6.425 2.81-11.243.804-4.82.804-8.835.804-12.45V89.25h-24.094V100.09c0 2.41-.402 4.819-.804 7.228-.401 2.41-2.409 3.614-5.622 3.614-3.212 0-5.22-1.204-5.621-3.614-.402-2.41-.804-4.819-.804-7.228 0-7.63 0-15.661-.401-23.693 0-8.03 0-15.66.401-23.692 0-6.024 2.008-8.835 6.024-8.835s6.023 2.811 6.023 8.835v10.44h23.693c-.402-3.613-.803-7.228-1.205-11.645-.401-4.417-1.204-7.63-2.008-10.039-2.007-6.024-5.622-10.04-10.842-12.047-5.22-1.606-10.44-2.811-16.063-2.811-5.622 0-11.244.803-16.062 2.81-5.22 1.607-8.835 5.623-10.843 12.048-1.204 2.81-2.008 6.827-2.81 11.645-.804 4.82-1.205 9.237-1.205 14.457v22.89c0 5.22.401 10.039 1.204 15.259.803 5.22 2.008 8.834 3.213 11.645 2.41 5.22 6.023 8.433 11.244 9.237 5.22 1.204 10.039 1.606 15.26 1.606 6.424.401 11.243 0 16.464-1.205zM342.94 88.847l5.622-44.976h.401l5.622 44.976zm14.055 18.07 2.81 20.882H383.9L366.632 28.21h-35.338l-17.267 99.188h24.094l2.81-20.882h16.064zM389.12 127.398h23.693V90.453h4.015c4.016 0 6.425.803 7.63 2.41 1.205 1.606 1.606 4.015 1.606 6.826v27.709h24.094v-22.89c0-6.023-1.204-11.244-4.015-15.26-2.811-4.015-6.827-6.424-12.047-7.63v-.4c5.22-.804 8.834-2.812 11.244-6.024 2.007-2.41 3.212-5.622 3.614-8.835.401-3.614.401-6.826.401-10.039 0-4.417-.401-8.433-.803-12.449-.401-4.015-2.41-7.63-6.023-10.039-3.213-2.41-7.229-4.016-12.047-4.417-4.418-.402-8.835-.803-12.85-.803h-29.717v98.786zm23.693-81.519h5.622c3.212 0 5.22.803 6.425 2.008 1.204 1.205 1.606 3.614 1.606 6.425v7.63c0 2.41-.402 4.417-.803 6.023-.402 1.607-1.607 2.811-2.811 3.615-1.205.803-2.811 1.204-5.622 1.204h-4.417zM471.442 127.398h23.692V47.485h16.063V28.21h-56.22v19.275h16.465z"/>
  <path fill="#f29221" d="M205.603 28.21h-24.496l14.858 47.385-16.062 52.204H204.8l8.031-38.952h.402l8.433 38.952h24.897L230.5 75.997l14.858-47.385h-24.495l-7.228 35.74zM20.855 0h113.898c11.23 0 20.855 9.224 20.855 20.855v113.898c0 11.23-9.224 20.855-20.855 20.855H20.855C9.625 155.608 0 146.384 0 134.753V20.855C.401 9.225 9.625 0 20.855 0z"/>
  <path fill="#fff" d="m122.077 77.503-10.842 10.842 10.44 10.44c.803.804 1.607 2.41 1.607 3.615v18.874c0 2.008-.402 2.41-2.41 2.41h-8.834v-14.457c0-2.008-.402-2.811-1.607-4.016l-9.637-9.638c-1.205-1.204-2.811-1.606-4.016-1.606H65.054c-1.606 0-3.212.402-4.016 1.606l-9.637 9.638c-1.205 1.205-1.606 2.008-1.606 4.016v11.645c0 2.008-.402 2.811-2.811 2.811h-8.835V102.4c0-1.205.803-2.811 1.606-3.614l10.843-10.842-10.441-10.441c-.803-.803-1.606-2.41-1.606-3.614v-38.15h11.645v31.323c0 2.008.402 2.81 1.606 4.016l9.638 9.637c1.205 1.205 2.811 1.607 4.016 1.607H97.18c1.606 0 3.212-.402 4.015-1.607l9.638-9.637c1.205-1.205 1.606-2.008 1.606-4.016V35.74h11.646v38.149c-.402 1.606-1.205 2.81-2.008 3.614z"/>
  <path fill="#fff" d="M70.275 66.259h-8.433v-8.433h8.433zM101.597 66.259h-8.433v-8.433h8.433zM70.275 50.598h-8.433v-8.433h8.433zM101.597 50.598h-8.433v-8.433h8.433zM85.936 66.259h-8.433v-8.433h8.433zM85.936 50.598h-8.433v-8.433h8.433z"/>
  <path fill="#b14c26" d="M50.196 132.116c-3.614 0-6.827-2.81-7.63-6.023h6.425c1.607 0 3.213-1.607 3.213-3.213v-6.425c3.614.803 6.023 4.016 6.023 7.63 0 4.417-3.614 8.031-8.03 8.031zM124.085 132.116c-3.614 0-6.827-2.41-7.63-6.023h6.425c1.606 0 3.213-1.607 3.213-3.213v-6.425c3.614.803 6.023 4.016 6.023 7.63 0 4.417-3.614 8.031-8.031 8.031z"/>
</svg>
